media/icon-file-type/svgs/generic/48.svg

<svg width="48" height="64" viewBox="0 0 48 64"><g fill-rule="evenodd"><path fill="#FFF" stroke="#091E42" stroke-opacity=".08" d="M4,0.5 L32.007097,0.5 C32.9580806,0.5 33.8681235,0.886970896 34.5278649,1.57188773 L46.5207679,14.0224343 C47.1490066,14.6746463 47.5,15.5449725 47.5,16.4505466 L47.5,60 C47.5,61.9329966 45.9329966,63.5 44,63.5 L4,63.5 C2.06700338,63.5 0.5,61.9329966 0.5,60 L0.5,4 C0.5,2.06700338 2.06700338,0.5 4,0.5 Z"/><path fill="#758195" d="M24,22.6666667 L25.5284009,22.6666667 C26.0615078,22.6666667 26.5725526,22.879504 26.9480591,23.2579188 L30.8549146,27.1950316 C30.9478497,27.2886865 31,27.4152785 31,27.5472186 L31,29.1666667 C31,29.442809 30.7761424,29.6666667 30.5,29.6666667 L26,29.6666667 C24.8954305,29.6666667 24,28.7712362 24,27.6666667 L24,25.0002333 L19.3333333,25.0002333 L19.3333333,39.0002333 L28.6666667,39.0002333 L28.6666667,30.8394 L31,30.8394 L31,39.0002333 C31,40.2882333 29.9558333,41.3335667 28.6666667,41.3335667 L19.3333333,41.3335667 C18.0441667,41.3335667 17,40.2882333 17,39.0002333 L17,25.0002333 C17,23.7110667 18.0441667,22.6669 19.3333333,22.6669 L24,22.6669 Z"/></g></svg>

<svg width="48" height="64" viewBox="0 0 48 64"><g fill-rule="evenodd"><path fill="#fff" stroke="#091e42" stroke-opacity=".08" d="M4 .5h28.007a3.5 3.5 0 0 1 2.52 1.072l11.994 12.45a3.5 3.5 0 0 1 .979 2.429V60a3.5 3.5 0 0 1-3.5 3.5H4A3.5 3.5 0 0 1 .5 60V4A3.5 3.5 0 0 1 4 .5Z"/><path fill="#758195" d="M24 22.667h1.528a2 2 0 0 1 1.42.59l3.907 3.938a.5.5 0 0 1 .145.352v1.62a.5.5 0 0 1-.5.5H26a2 2 0 0 1-2-2V25h-4.667v14h9.334v-8.16H31V39a2.333 2.333 0 0 1-2.333 2.334h-9.334A2.333 2.333 0 0 1 17 39V25a2.333 2.333 0 0 1 2.333-2.333z"/></g></svg>
